assets/images/parnter1.svg

<svg width="200" height="47" viewBox="0 0 200 47" fill="none" xmlns="http://www.w3.org/2000/svg">
<g clip-path="url(#clip0_352_754)">
<path d="M32.1948 16.8267H18.997L16.6641 22.5145H29.7952L32.1948 16.8267Z" fill="#F68712"/>
<path d="M35.2941 0.507846H42.193V25.1214H57.1571L54.7909 30.8432H35.2608V0.507846H35.2941ZM57.2571 17.5037V0.507846H64.156V17.2329C64.156 22.9885 66.6222 25.3923 70.8215 25.3923C75.0208 25.3923 77.4871 23.0223 77.4871 17.2329V0.507846H84.3193V17.5037C84.3193 26.4418 79.2868 31.3849 70.7882 31.3849C62.2896 31.3849 57.2571 26.4418 57.2571 17.5037ZM106.216 11.5112C106.216 8.15939 104.083 6.22957 99.85 6.22957H94.251V16.7589H99.8833C104.083 16.7589 106.216 14.8291 106.216 11.5112ZM113.214 11.5112C113.214 18.2824 108.215 22.4806 100.25 22.4806H94.251V30.8432H87.3521V0.507846H100.25C108.249 0.507846 113.214 4.70604 113.214 11.5112ZM168.305 15.6755C168.305 9.91991 164.306 5.95872 158.974 5.95872C153.641 5.95872 149.642 9.91991 149.642 15.6755C149.642 21.4311 153.641 25.3923 158.974 25.3923C164.306 25.3923 168.305 21.4649 168.305 15.6755ZM142.61 15.6755C142.61 6.6697 149.508 0 158.94 0C168.372 0 175.271 6.63584 175.271 15.6755C175.271 24.7151 168.305 31.351 158.94 31.351C149.508 31.3849 142.61 24.7151 142.61 15.6755ZM184.436 6.16186V16.8605H192.801L190.202 22.5483H184.436V30.877H177.537V0.507846H200L197.534 6.12801H184.436V6.16186ZM135.377 23.8349H127.679L133.644 30.877H141.343L135.377 23.8349ZM133.811 11.5112C133.811 8.15939 131.678 6.22957 127.445 6.22957H121.813V16.7589H127.445C131.678 16.7589 133.811 14.8291 133.811 11.5112ZM140.81 11.5112C140.81 18.2824 135.811 22.4806 127.845 22.4806H121.813V30.8432H114.914V0.507846H127.845C135.811 0.507846 140.81 4.70604 140.81 11.5112ZM20.5632 16.8266H27.3621L20.1633 0.507846H13.2978L0 30.8432H7.06549L16.6639 7.38068L20.5632 16.8266ZM33.4944 30.8432H26.2623L23.3961 23.8349H30.4283L33.4944 30.8432ZM76.3873 43.2007L74.7875 39.4765L73.1878 43.2007H76.3873ZM76.7539 44.081H72.7879L71.9547 45.9769H70.8549L74.221 38.3931H75.2875L78.6869 45.9769H77.5871L76.7539 44.081ZM80.4533 38.3931H81.5197V45.029H85.5524V45.9769H80.4533V38.3931ZM87.2521 42.6929V38.3931H88.3186V42.659C88.3186 44.3518 89.0852 45.0967 90.4183 45.0967C91.7514 45.0967 92.5179 44.3518 92.5179 42.659V38.3931H93.5511V42.6929C93.5511 44.8936 92.3846 46.0447 90.3849 46.0447C88.3853 46.0447 87.2521 44.8936 87.2521 42.6929ZM103.283 45.9769V40.4584L100.583 45.0628H100.083L97.3838 40.4922V45.9769H96.3506V38.3931H97.2171L100.317 43.7086L103.383 38.3931H104.249V45.9769H103.283ZM107.182 38.3931H108.249V45.9769H107.182V38.3931ZM117.547 38.3931V45.9769H116.681L112.215 40.3229V45.9769H111.148V38.3931H112.015L116.481 44.0471V38.3931H117.547ZM120.447 38.3931H121.513V45.9769H120.447V38.3931ZM124.313 42.6929V38.3931H125.379V42.659C125.379 44.3518 126.146 45.0967 127.479 45.0967C128.812 45.0967 129.578 44.3518 129.578 42.659V38.3931H130.612V42.6929C130.612 44.8936 129.445 46.0447 127.445 46.0447C125.512 46.0447 124.313 44.8936 124.313 42.6929ZM140.377 45.9769V40.4584L137.677 45.0628H137.177L134.478 40.4922V45.9769H133.444V38.3931H134.311L137.41 43.7086L140.477 38.3931H141.343V45.9769H140.377ZM147.109 45.0967L147.509 44.2503C148.205 44.8255 149.077 45.1366 149.975 45.1305C151.275 45.1305 151.808 44.6227 151.808 43.9456C151.808 42.0835 147.309 43.2684 147.309 40.4584C147.309 39.3072 148.209 38.2916 150.175 38.2916C151.022 38.2774 151.856 38.5125 152.575 38.9687L152.208 39.849C151.597 39.4624 150.894 39.2517 150.175 39.2395C148.909 39.2395 148.375 39.7812 148.375 40.4245C148.375 42.2866 152.875 41.1016 152.875 43.9117C152.875 45.0628 151.975 46.0785 149.975 46.0785C148.809 46.0447 147.709 45.6722 147.109 45.0967ZM157.74 43.3362V45.9431H156.674V43.3023L153.708 38.3593H154.841L157.24 42.3543L159.64 38.3593H160.707L157.74 43.3362ZM161.573 45.0967L161.973 44.2503C162.67 44.8255 163.542 45.1366 164.439 45.1305C165.739 45.1305 166.272 44.6227 166.272 43.9456C166.272 42.0835 161.773 43.2684 161.773 40.4584C161.773 39.3072 162.673 38.2916 164.639 38.2916C165.487 38.2774 166.32 38.5125 167.039 38.9687L166.672 39.849C166.061 39.4624 165.359 39.2517 164.639 39.2395C163.373 39.2395 162.84 39.7812 162.84 40.4245C162.84 42.2866 167.339 41.1016 167.339 43.9117C167.339 45.0628 166.439 46.0785 164.439 46.0785C163.306 46.0447 162.173 45.6722 161.573 45.0967ZM170.905 39.3411H168.339V38.3931H174.504V39.3411H171.938V45.9769H170.905V39.3411ZM181.736 45.029V45.9769H176.337V38.3931H181.57V39.3411H177.37V41.6772H181.103V42.5913H177.37V45.029H181.736ZM191.001 45.9769V40.4584L188.302 45.0628H187.802L185.102 40.4922V45.9769H184.069V38.3931H184.936L188.035 43.7086L191.101 38.3931H191.968V45.9769H191.001ZM194.234 45.0967L194.634 44.2503C195.331 44.8255 196.203 45.1366 197.1 45.1305C198.4 45.1305 198.934 44.6227 198.934 43.9456C198.934 42.0835 194.434 43.2684 194.434 40.4584C194.434 39.3072 195.334 38.2916 197.3 38.2916C198.148 38.2774 198.981 38.5125 199.7 38.9687L199.333 39.849C198.723 39.4624 198.02 39.2517 197.3 39.2395C196.034 39.2395 195.501 39.7812 195.501 40.4245C195.501 42.2866 200 41.1016 200 43.9117C200 45.0628 199.1 46.0785 197.1 46.0785C195.934 46.0447 194.834 45.6722 194.234 45.0967Z" fill="#1E1F43"/>
</g>
<defs>
<clipPath id="clip0_352_754">
<rect width="200" height="46.0785" fill="white"/>
</clipPath>
</defs>
</svg>

<svg width="200" height="47" fill="none" xmlns="http://www.w3.org/2000/svg"><g clip-path="url(#a)"><path d="M32.195 16.827H18.997l-2.333 5.688h13.131l2.4-5.688Z" fill="#F68712"/><path d="M35.294.508h6.899V25.12h14.964l-2.366 5.722H35.26V.508h.033Zm21.963 16.996V.508h6.899v16.725c0 5.755 2.466 8.16 6.665 8.16 4.2 0 6.666-2.37 6.666-8.16V.508h6.832v16.996c0 8.938-5.032 13.88-13.53 13.88-8.5 0-13.532-4.942-13.532-13.88Zm48.959-5.993c0-3.352-2.133-5.281-6.366-5.281h-5.599v10.529h5.632c4.2 0 6.333-1.93 6.333-5.248Zm6.998 0c0 6.771-4.999 10.97-12.964 10.97h-5.999v8.362h-6.899V.508h12.898c7.999 0 12.964 4.198 12.964 11.003Zm55.091 4.165c0-5.756-3.999-9.717-9.331-9.717-5.333 0-9.332 3.96-9.332 9.716 0 5.756 3.999 9.717 9.332 9.717 5.332 0 9.331-3.927 9.331-9.716Zm-25.695 0C142.61 6.67 149.508 0 158.94 0c9.432 0 16.331 6.636 16.331 15.675 0 9.04-6.966 15.676-16.331 15.676-9.432.034-16.33-6.636-16.33-15.675Zm41.826-9.514V16.86h8.365l-2.599 5.688h-5.766v8.329h-6.899V.507H200l-2.466 5.621h-13.098v.034Zm-49.059 17.673h-7.698l5.965 7.042h7.699l-5.966-7.042Zm-1.566-12.324c0-3.352-2.133-5.281-6.366-5.281h-5.632v10.529h5.632c4.233 0 6.366-1.93 6.366-5.248Zm6.999 0c0 6.771-4.999 10.97-12.965 10.97h-6.032v8.362h-6.899V.508h12.931c7.966 0 12.965 4.198 12.965 11.003ZM20.563 16.827h6.8l-7.2-16.32h-6.865L0 30.844h7.065l9.599-23.462 3.9 9.446Zm12.931 14.016h-7.232l-2.866-7.008h7.032l3.066 7.008Zm42.893 12.358-1.6-3.724-1.6 3.724h3.2Zm.367.88h-3.966l-.833 1.896h-1.1l3.366-7.584h1.066l3.4 7.584h-1.1l-.833-1.896Zm3.7-5.688h1.066v6.636h4.032v.948h-5.099v-7.584Zm6.798 4.3v-4.3h1.067v4.266c0 1.693.766 2.438 2.1 2.438 1.332 0 2.099-.745 2.099-2.438v-4.266h1.033v4.3c0 2.2-1.166 3.352-3.166 3.352s-3.133-1.151-3.133-3.352Zm16.031 3.284v-5.519l-2.7 4.605h-.5l-2.7-4.57v5.484h-1.032v-7.584h.866l3.1 5.316 3.066-5.316h.866v7.584h-.966Zm3.899-7.584h1.067v7.584h-1.067v-7.584Zm10.365 0v7.584h-.866l-4.466-5.654v5.654h-1.067v-7.584h.867l4.466 5.654v-5.654h1.066Zm2.9 0h1.066v7.584h-1.066v-7.584Zm3.866 4.3v-4.3h1.066v4.266c0 1.693.767 2.438 2.1 2.438 1.333 0 2.099-.745 2.099-2.438v-4.266h1.034v4.3c0 2.2-1.167 3.352-3.167 3.352-1.933 0-3.132-1.151-3.132-3.352Zm16.064 3.284v-5.519l-2.7 4.605h-.5l-2.699-4.57v5.484h-1.034v-7.584h.867l3.099 5.316 3.067-5.316h.866v7.584h-.966Zm6.732-.88.4-.847a3.829 3.829 0 0 0 2.466.88c1.3 0 1.833-.507 1.833-1.184 0-1.862-4.499-.678-4.499-3.488 0-1.15.9-2.166 2.866-2.166a4.343 4.343 0 0 1 2.4.677l-.367.88a3.927 3.927 0 0 0-2.033-.61c-1.266 0-1.8.542-1.8 1.186 0 1.862 4.5.677 4.5 3.487 0 1.15-.9 2.166-2.9 2.166-1.166-.033-2.266-.406-2.866-.981Zm10.631-1.76v2.606h-1.066v-2.64l-2.966-4.944h1.133l2.399 3.995 2.4-3.995h1.067l-2.967 4.977Zm3.833 1.76.4-.847a3.833 3.833 0 0 0 2.466.88c1.3 0 1.833-.507 1.833-1.184 0-1.862-4.499-.678-4.499-3.488 0-1.15.9-2.166 2.866-2.166a4.341 4.341 0 0 1 2.4.677l-.367.88a3.924 3.924 0 0 0-2.033-.61c-1.266 0-1.799.542-1.799 1.186 0 1.862 4.499.677 4.499 3.487 0 1.15-.9 2.166-2.9 2.166-1.133-.033-2.266-.406-2.866-.981Zm9.332-5.756h-2.566v-.948h6.165v.948h-2.566v6.636h-1.033V39.34Zm10.831 5.688v.948h-5.399v-7.584h5.233v.948h-4.2v2.336h3.733v.914h-3.733v2.438h4.366Zm9.265.948v-5.519l-2.699 4.605h-.5l-2.7-4.57v5.484h-1.033v-7.584h.867l3.099 5.316 3.066-5.316h.867v7.584h-.967Zm3.233-.88.4-.847a3.833 3.833 0 0 0 2.466.88c1.3 0 1.834-.507 1.834-1.184 0-1.862-4.5-.678-4.5-3.488 0-1.15.9-2.166 2.866-2.166a4.341 4.341 0 0 1 2.4.677l-.367.88a3.921 3.921 0 0 0-2.033-.61c-1.266 0-1.799.542-1.799 1.186 0 1.862 4.499.677 4.499 3.487 0 1.15-.9 2.166-2.9 2.166-1.166-.033-2.266-.406-2.866-.981Z" fill="#1E1F43"/></g><defs><clipPath id="a"><path fill="#fff" d="M0 0h200v46.078H0z"/></clipPath></defs></svg>
